assets/images/icons/src/fighter-jet.svg

<?xml version="1.0" encoding="utf-8"?>
<!-- Generated by IcoMoon.io -->
<!DOCTYPE svg PUBLIC "-//W3C//DTD SVG 1.1//EN" "http://www.w3.org/Graphics/SVG/1.1/DTD/svg11.dtd">
<svg version="1.1" xmlns="http://www.w3.org/2000/svg" xmlns:xlink="http://www.w3.org/1999/xlink" width="15" height="14" viewBox="0 0 15 14">
<path fill="#444444" d="M15 7.5q-0.008 0.25-2.25 0.75l-2.75 0.25-1.75 0.5h-0.5l-2.289 2.75h0.539q0.203 0 0.352 0.035t0.148 0.090-0.148 0.090-0.352 0.035h-2.5v-0.25h0.5v-3.25h-1.25l-1.5 1.75h-0.75l-0.25-0.25v-1.5h0.25v-0.25h1v-0.062l-1.5-0.187v-1l1.5-0.187v-0.062h-1v-0.25h-0.25v-1.5l0.25-0.25h0.75l1.5 1.75h1.25v-3.25h-0.5v-0.25h2.5q0.203 0 0.352 0.035t0.148 0.090-0.148 0.090-0.352 0.035h-0.539l2.289 2.75h0.5l1.75 0.5 2.75 0.25q2.039 0.453 2.242 0.727z"></path>
</svg>

<svg xmlns="http://www.w3.org/2000/svg" width="15" height="14" viewBox="0 0 15 14"><path fill="#444" d="M15 7.5q-.008.25-2.25.75L10 8.5 8.25 9h-.5l-2.289 2.75H6q.203 0 .352.035t.148.09-.148.09T6 12H3.5v-.25H4V8.5H2.75l-1.5 1.75H.5L.25 10V8.5H.5v-.25h1v-.062L0 8.001v-1l1.5-.187v-.062h-1v-.25H.25v-1.5l.25-.25h.75l1.5 1.75H4v-3.25h-.5v-.25H6q.203 0 .352.035t.148.09-.148.09T6 3.252h-.539l2.289 2.75h.5l1.75.5 2.75.25q2.039.453 2.242.727z"/></svg>
